assets/svg/moto_purple_icon.svg

<svg fill="none" height="227" viewBox="0 0 343 227" width="343" xmlns="http://www.w3.org/2000/svg"><path d="m271.305 143.294c-.154-4.076-1.083-8.022-2.759-11.763-3.714-8.254-9.8-14.033-18.233-17.309-2.012-.773-4.178-1.238-6.293-1.754-.851-.206-1.264-.412-1.212-1.393.077-1.599-.052-1.625-1.573-1.78-4.333-.464-8.588 0-12.766 1.213-1.573.464-1.573.438-2.218-1.109-.98-2.374-2.037-4.721-2.992-7.12-.438-1.083-.67-2.244-1.495-3.1727-.129-.129 0-.6707.206-.9029.645-.748.567-1.4703.103-2.27-.438-.7738-.748-1.6509-1.186-2.4505-.232-.4128-.593-.7481-.929-1.135.284-1.6252.594-3.3277.929-5.1591 1.006-.1032 2.089-.258 3.172-.3354.206 0 .438.1806.645.3096.773.5159 1.418.129 1.985-.5933.8-.9802.413-1.9089.207-2.8375-.929-3.8693-1.96-7.7129-2.889-11.5822-.232-.9802-1.083-1.3671-1.728-1.5993-.851-.3095-1.237.5417-1.341 1.2898-2.914.2321-4.384 2.399-5.905 4.3852-.671.877-1.084 1.9347-1.599 2.9407-.877-.6449-1.573-2.2958-1.212-3.1729.696-1.7025.567-3.4307.361-5.1848-.052-.3612-.078-.6965-.129-1.0577-.31-1.9088-.103-3.6629.98-5.3396.799-1.1866 1.444-2.5022 2.011-3.8177.181-.4128.052-1.0577-.129-1.522-.154-.4385-.593-.7738-.877-1.1866-.67-1.0318-1.65-1.7799-1.934-3.1728-.283-1.3156-1.134-1.5477-2.347-.8513-1.624.9545-3.172 2.0895-4.745 3.1213-.464.3095-.98.5417-1.47.7997-.645.3611-1.135.0773-1.418-.4644-.181-.3611-.232-.877-.155-1.2897.103-.7223.438-1.4188.542-2.1411.154-1.0834-.619-1.1608-1.393-1.0834 0-1.4703-.077-1.3671-1.47-1.5477-2.656-.3353-4.333 1.3672-6.19 2.7343-.618.4643-.206 1.0318.104 1.4962.773 1.1608.748 1.3155-.516 1.9346-.413.2064-.748.5159-1.161.7223-.412.2064-.851.3353-1.263.5417-.697.3611-1.522.6449-1.986 1.2382-.696.9028.103 2.3216 1.264 2.4505.386.0516.773 0 1.16 0 .98 0 1.238.3354.98 1.3156-.593 2.0894.413 3.1471 2.579 2.7343.258-.0516.645.1806.825.387.413.4901.774.4901 1.264.1547.619-.4127 1.264-.7738 1.883-1.1866.567-.3869 1.109-.8512 1.753-1.3413.542 1.1092 1.083 2.1926 1.677 3.3534-.465.1806-.877.3353-1.419.5417.645 1.8315 1.29 3.663 1.909 5.4686.206.6191.619 1.2124 0 1.9089-.181.2064 0 .8254.154 1.1866.568 1.2382 1.212 2.4506 1.857 3.7919-.645.2322-1.186.4127-1.779.6191-.103-.2837-.232-.4643-.258-.6449-.181-1.5735-1.238-2.0894-2.631-2.3474-3.765-.6964-7.479-1.4703-11.244-2.1152-1.057-.1806-2.192-.129-3.249.129-3.843.877-7.711 1.7799-11.503 2.8633-3.739 1.0576-7.401 2.399-11.141 3.534-4.435 1.3671-8.923 2.6311-13.384 3.9467-.903.2579-1.806.5933-2.708.9028-.232.0774-.542.1548-.645.3353-.748 1.3414-1.496.9029-2.321.0774-.258-.2579-.696-.3611-1.057-.4127-3.095-.4901-6.19-.9802-9.285-1.4445-2.914-.4644-5.854-1.0061-8.794-1.3414-5.725-.6449-10.986-2.9665-16.453-4.54-.748-.2064-1.625-.4385-2.322-.258-.618.1548-1.263.7739-1.573 1.3414-.464.8771-.619 1.9347-.98 2.8633-.103.2837-.412.5933-.722.6965-.67.2063-.902.5417-.954 1.264-.155 1.9604.335 3.3276 2.089 4.6173 7.066 5.1849 13.978 10.5757 20.967 15.8897 1.031.8 2.089 1.574 3.095 2.399.412.361.696.852 1.057 1.29-.077.103-.155.206-.258.284-.387-.207-.774-.464-1.186-.568-.284-.077-.645.104-.955.181.078.309.129.645.284.929.155.309.387.567.593.851-.051.051-.129.129-.18.18-.232-.103-.464-.258-.722-.309-.387-.052-.8-.026-1.187-.026.078.335.181.671.232 1.006.052.31.052.645.104 1.187-.542-.336-.8-.49-1.109-.671-.232.284-.413.516-.645.774.206.309.387.619.619.954-.593.542-1.186 1.084-1.831 1.625.258.387.412.645.696 1.084-.541.387-1.135.722-1.65 1.161-.413.335-.697.799-1.032 1.212-.206.258-.387.696-.619.722-.335.052-.825-.103-1.006-.361-3.636-4.978-8.33-8.77-13.694-11.634-3.971-2.115-8.2267-3.585-12.7657-3.869-2.2694-.129-4.5647-.258-6.86-.206-1.7021.051-3.4042.387-5.261.619.1031.851.2063 1.599.3094 2.373-1.5473.542-3.0947 1.058-4.6163 1.625-4.9258 1.832-9.1294 4.772-12.7142 8.564-4.9516 5.237-7.9947 11.428-9.1037 18.521-.98 6.191-.2837 12.227 2.0116 18.083 3.0432 7.816 8.2526 13.723 15.4737 17.902 2.5016 1.444 5.1579 2.631 7.9947 3.276 2.4242.567 4.8227 1.212 7.4016 1.058 2.9142-.181 5.8542.206 8.7426-.516 3.1206-.774 6.1123-1.832 9.0003-3.276 5.132-2.58 9.207-6.32 12.56-10.938 2.733-3.792 4.59-8.048 5.596-12.562.645-2.915.49-6.036.567-9.054.104-3.715-.386-3.173 3.276-4.102 2.759-.696 5.519-1.496 8.252-2.296 1.316-.386 2.399-.232 3.353.878 1.135 1.315 2.218 2.682 3.482 3.843 1.624 1.47 3.275 3.121 5.235 4.05 2.089 1.006 4.565.748 6.679-.31 1.367-.696 5.364-2.914 5.364-2.914l2.528-1.264s2.424-1.29 2.94-1.574c6.138-3.405 12.301-6.784 18.465-10.112 4.359-2.347 8.743-4.669 13.127-6.965 2.037-1.057 3.482-2.579 4.255-4.746 1.599-4.488 3.25-8.951 4.849-13.414.283-.799.309-1.6763.67-2.4243.258-.5675.774-1.1092 1.315-1.4704.774-.4901 1.677-.748 2.502-1.1092.903-.3869 1.496-.1548 1.625.7997.154 1.135.773 1.5735 1.831 1.9862 1.934.748 3.61 1.832 4.41 4.076 1.006 2.889 2.321 5.649 3.559 8.435.387.877.154 1.419-.593 1.831-5.674 3.122-10.11 7.558-13.411 13.104-1.986 3.328-3.378 6.965-4.229 10.783-.181.774-.31 1.599-.361 2.399-.078.851.515 1.161 1.263 1.238 1.625.155 1.625.155 1.625 1.78 0 .877.052 1.78 0 2.657-.31 5.159 1.135 9.88 3.482 14.394 2.114 4.075 4.796 7.687 8.433 10.447 3.636 2.76 7.685 4.875 12.095 6.113 1.341.362 2.759.516 4.152.697 1.315.18 2.656.413 3.972.413 6.138 0 11.863-1.548 17.201-4.644 3.611-2.115 6.602-4.849 9.181-8.048 2.141-2.657 3.791-5.701 4.874-8.951.774-2.27 1.625-4.566 1.599-7.094 0-1.883.439-3.791.387-5.675zm-182.2539 23.809c-13.8748 0-25.119-11.247-25.119-25.125s11.2442-25.124 25.119-25.124c10.5478 0 19.5739 6.5 23.2879 15.735l-11.347 3.482c-2.2183-4.385-6.783-7.403-12.0441-7.403-7.4532 0-13.4879 6.036-13.4879 13.491s6.0347 13.491 13.4879 13.491 13.3331-5.907 13.4881-13.233l11.528-3.56c.129 1.006.18 2.038.18 3.07 0 13.878-11.244 25.124-25.1187 25.124zm149.3979 3.302c-13.874 0-25.118-11.247-25.118-25.125 0-9.699 5.493-18.082 13.513-22.287l4.488 9.854c-3.817 2.373-6.37 6.629-6.37 11.479 0 7.455 6.034 13.491 13.487 13.491 7.454 0 13.488-6.036 13.488-13.491s-6.034-13.491-13.488-13.491c-.618 0-1.237.051-1.831.129l-4.539-9.983c2.038-.542 4.178-.826 6.37-.826 13.875 0 25.119 11.247 25.119 25.125s-11.244 25.125-25.119 25.125z" fill="#7200a6"/></svg>

<svg width="343" height="227" viewBox="0 0 343 227" fill="none" xmlns="http://www.w3.org/2000/svg">
    <path
        d="M271.305 143.294C271.151 139.218 270.222 135.272 268.546 131.531C264.832 123.277 258.746 117.498 250.313 114.222C248.301 113.449 246.135 112.984 244.02 112.468C243.169 112.262 242.756 112.056 242.808 111.075C242.885 109.476 242.756 109.45 241.235 109.295C236.902 108.831 232.647 109.295 228.469 110.508C226.896 110.972 226.896 110.946 226.251 109.399C225.271 107.025 224.214 104.678 223.259 102.279C222.821 101.196 222.589 100.035 221.764 99.1063C221.635 98.9773 221.764 98.4356 221.97 98.2034C222.615 97.4554 222.537 96.7331 222.073 95.9334C221.635 95.1596 221.325 94.2825 220.887 93.4829C220.655 93.0701 220.294 92.7348 219.958 92.3479C220.242 90.7227 220.552 89.0202 220.887 87.1888C221.893 87.0856 222.976 86.9308 224.059 86.8534C224.265 86.8534 224.497 87.034 224.704 87.163C225.477 87.6789 226.122 87.292 226.689 86.5697C227.489 85.5895 227.102 84.6608 226.896 83.7322C225.967 79.8629 224.936 76.0193 224.007 72.15C223.775 71.1698 222.924 70.7829 222.279 70.5507C221.428 70.2412 221.042 71.0924 220.938 71.8405C218.024 72.0726 216.554 74.2395 215.033 76.2257C214.362 77.1027 213.949 78.1604 213.434 79.1664C212.557 78.5215 211.861 76.8706 212.222 75.9935C212.918 74.291 212.789 72.5628 212.583 70.8087C212.531 70.4475 212.505 70.1122 212.454 69.751C212.144 67.8422 212.351 66.0881 213.434 64.4114C214.233 63.2248 214.878 61.9092 215.445 60.5937C215.626 60.1809 215.497 59.536 215.316 59.0717C215.162 58.6332 214.723 58.2979 214.439 57.8851C213.769 56.8533 212.789 56.1052 212.505 54.7123C212.222 53.3967 211.371 53.1646 210.158 53.861C208.534 54.8155 206.986 55.9505 205.413 56.9823C204.949 57.2918 204.433 57.524 203.943 57.782C203.298 58.1431 202.808 57.8593 202.525 57.3176C202.344 56.9565 202.293 56.4406 202.37 56.0279C202.473 55.3056 202.808 54.6091 202.912 53.8868C203.066 52.8034 202.293 52.726 201.519 52.8034C201.519 51.3331 201.442 51.4363 200.049 51.2557C197.393 50.9204 195.716 52.6229 193.859 53.99C193.241 54.4543 193.653 55.0218 193.963 55.4862C194.736 56.647 194.711 56.8017 193.447 57.4208C193.034 57.6272 192.699 57.9367 192.286 58.1431C191.874 58.3495 191.435 58.4784 191.023 58.6848C190.326 59.0459 189.501 59.3297 189.037 59.923C188.341 60.8258 189.14 62.2446 190.301 62.3735C190.687 62.4251 191.074 62.3735 191.461 62.3735C192.441 62.3735 192.699 62.7089 192.441 63.6891C191.848 65.7785 192.854 66.8362 195.02 66.4234C195.278 66.3718 195.665 66.604 195.845 66.8104C196.258 67.3005 196.619 67.3005 197.109 66.9651C197.728 66.5524 198.373 66.1913 198.992 65.7785C199.559 65.3916 200.101 64.9273 200.745 64.4372C201.287 65.5464 201.828 66.6298 202.422 67.7906C201.957 67.9712 201.545 68.1259 201.003 68.3323C201.648 70.1638 202.293 71.9953 202.912 73.8009C203.118 74.42 203.531 75.0133 202.912 75.7098C202.731 75.9162 202.912 76.5352 203.066 76.8964C203.634 78.1346 204.278 79.347 204.923 80.6883C204.278 80.9205 203.737 81.101 203.144 81.3074C203.041 81.0237 202.912 80.8431 202.886 80.6625C202.705 79.089 201.648 78.5731 200.255 78.3151C196.49 77.6187 192.776 76.8448 189.011 76.1999C187.954 76.0193 186.819 76.0709 185.762 76.3289C181.919 77.2059 178.051 78.1088 174.259 79.1922C170.52 80.2498 166.858 81.5912 163.118 82.7262C158.683 84.0933 154.195 85.3573 149.734 86.6729C148.831 86.9308 147.928 87.2662 147.026 87.5757C146.794 87.6531 146.484 87.7305 146.381 87.911C145.633 89.2524 144.885 88.8139 144.06 87.9884C143.802 87.7305 143.364 87.6273 143.003 87.5757C139.908 87.0856 136.813 86.5955 133.718 86.1312C130.804 85.6668 127.864 85.1251 124.924 84.7898C119.199 84.1449 113.938 81.8233 108.471 80.2498C107.723 80.0434 106.846 79.8113 106.149 79.9918C105.531 80.1466 104.886 80.7657 104.576 81.3332C104.112 82.2103 103.957 83.2679 103.596 84.1965C103.493 84.4802 103.184 84.7898 102.874 84.893C102.204 85.0993 101.972 85.4347 101.92 86.157C101.765 88.1174 102.255 89.4846 104.009 90.7743C111.075 95.9592 117.987 101.35 124.976 106.664C126.007 107.464 127.065 108.238 128.071 109.063C128.483 109.424 128.767 109.915 129.128 110.353C129.051 110.456 128.973 110.559 128.87 110.637C128.483 110.43 128.096 110.173 127.684 110.069C127.4 109.992 127.039 110.173 126.729 110.25C126.807 110.559 126.858 110.895 127.013 111.179C127.168 111.488 127.4 111.746 127.606 112.03C127.555 112.081 127.477 112.159 127.426 112.21C127.194 112.107 126.962 111.952 126.704 111.901C126.317 111.849 125.904 111.875 125.517 111.875C125.595 112.21 125.698 112.546 125.749 112.881C125.801 113.191 125.801 113.526 125.853 114.068C125.311 113.732 125.053 113.578 124.744 113.397C124.512 113.681 124.331 113.913 124.099 114.171C124.305 114.48 124.486 114.79 124.718 115.125C124.125 115.667 123.532 116.209 122.887 116.75C123.145 117.137 123.299 117.395 123.583 117.834C123.042 118.221 122.448 118.556 121.933 118.995C121.52 119.33 121.236 119.794 120.901 120.207C120.695 120.465 120.514 120.903 120.282 120.929C119.947 120.981 119.457 120.826 119.276 120.568C115.64 115.59 110.946 111.798 105.582 108.934C101.611 106.819 97.3553 105.349 92.8163 105.065C90.5469 104.936 88.2516 104.807 85.9563 104.859C84.2542 104.91 82.5521 105.246 80.6953 105.478C80.7984 106.329 80.9016 107.077 81.0047 107.851C79.4574 108.393 77.91 108.909 76.3884 109.476C71.4626 111.308 67.259 114.248 63.6742 118.04C58.7226 123.277 55.6795 129.468 54.5705 136.561C53.5905 142.752 54.2868 148.788 56.5821 154.644C59.6253 162.46 64.8347 168.367 72.0558 172.546C74.5574 173.99 77.2137 175.177 80.0505 175.822C82.4747 176.389 84.8732 177.034 87.4521 176.88C90.3663 176.699 93.3063 177.086 96.1947 176.364C99.3153 175.59 102.307 174.532 105.195 173.088C110.327 170.508 114.402 166.768 117.755 162.15C120.488 158.358 122.345 154.102 123.351 149.588C123.996 146.673 123.841 143.552 123.918 140.534C124.022 136.819 123.532 137.361 127.194 136.432C129.953 135.736 132.713 134.936 135.446 134.136C136.762 133.75 137.845 133.904 138.799 135.014C139.934 136.329 141.017 137.696 142.281 138.857C143.905 140.327 145.556 141.978 147.516 142.907C149.605 143.913 152.081 143.655 154.195 142.597C155.562 141.901 159.559 139.683 159.559 139.683L162.087 138.419C162.087 138.419 164.511 137.129 165.027 136.845C171.165 133.44 177.328 130.061 183.492 126.733C187.851 124.386 192.235 122.064 196.619 119.768C198.656 118.711 200.101 117.189 200.874 115.022C202.473 110.534 204.124 106.071 205.723 101.608C206.006 100.809 206.032 99.9317 206.393 99.1837C206.651 98.6162 207.167 98.0745 207.708 97.7133C208.482 97.2232 209.385 96.9653 210.21 96.6041C211.113 96.2172 211.706 96.4493 211.835 97.4038C211.989 98.5388 212.608 98.9773 213.666 99.39C215.6 100.138 217.276 101.222 218.076 103.466C219.082 106.355 220.397 109.115 221.635 111.901C222.022 112.778 221.789 113.32 221.042 113.732C215.368 116.854 210.932 121.29 207.631 126.836C205.645 130.164 204.253 133.801 203.402 137.619C203.221 138.393 203.092 139.218 203.041 140.018C202.963 140.869 203.556 141.179 204.304 141.256C205.929 141.411 205.929 141.411 205.929 143.036C205.929 143.913 205.981 144.816 205.929 145.693C205.619 150.852 207.064 155.573 209.411 160.087C211.525 164.162 214.207 167.774 217.844 170.534C221.48 173.294 225.529 175.409 229.939 176.647C231.28 177.009 232.698 177.163 234.091 177.344C235.406 177.524 236.747 177.757 238.063 177.757C244.201 177.757 249.926 176.209 255.264 173.113C258.875 170.998 261.866 168.264 264.445 165.065C266.586 162.408 268.236 159.364 269.319 156.114C270.093 153.844 270.944 151.548 270.918 149.02C270.918 147.137 271.357 145.229 271.305 143.345V143.294ZM89.0511 167.103C75.1763 167.103 63.9321 155.856 63.9321 141.978C63.9321 128.1 75.1763 116.854 89.0511 116.854C99.5989 116.854 108.625 123.354 112.339 132.589L100.992 136.071C98.7737 131.686 94.209 128.668 88.9479 128.668C81.4947 128.668 75.46 134.704 75.46 142.159C75.46 149.614 81.4947 155.65 88.9479 155.65C96.4011 155.65 102.281 149.743 102.436 142.417L113.964 138.857C114.093 139.863 114.144 140.895 114.144 141.927C114.144 155.805 102.9 167.051 89.0253 167.051L89.0511 167.103ZM238.449 170.405C224.575 170.405 213.331 159.158 213.331 145.28C213.331 135.581 218.824 127.198 226.844 122.993L231.332 132.847C227.515 135.22 224.962 139.476 224.962 144.326C224.962 151.781 230.996 157.817 238.449 157.817C245.903 157.817 251.937 151.781 251.937 144.326C251.937 136.871 245.903 130.835 238.449 130.835C237.831 130.835 237.212 130.886 236.618 130.964L232.079 120.981C234.117 120.439 236.257 120.155 238.449 120.155C252.324 120.155 263.568 131.402 263.568 145.28C263.568 159.158 252.324 170.405 238.449 170.405Z"
        fill="#7200A6" />
</svg>
